X:1
T:Title
%%score { ( 1 3 ) | 2 }
L:1/8
Q:1/4=100
M:4/4
K:D
V:1 treble nm="Grand Piano"
V:3 treble 
V:2 bass 
V:1
 D2 D2 A2 A2 | D2 E2 F4 | z4 z2 [Ec]2 | c2 B2 [CA]4 | B2 A2 G2 B2 | A2 G2 F4 | D2 D2 [CA]4 | %7
w: Charles~S.~Brown * * *|||||||
 [CE]2 [CF]2 D4 |] %8
w: |
V:2
 [D,F,A,]2 [F,A,]2 [E,G,C]2 [F,A,D]2 | [G,B,]2 [E,A,C]2 [D,A,D]4 | %2
 [C,A,]2 [D,A,]2 [B,,A,]2 .[C,A,]2 | [E,A,E]2 [E,^G,D]2 [A,,A,]4 | %4
 [E,G,C]2 [F,A,D]2 [E,B,D]2 [E,G,C]2 | [F,A,D]2 [E,A,C]2 [D,A,D]4 | [D,G,B,]2 [D,F,A,]2 [A,,E,]4 | %7
 [A,,G,]2 [A,,A,]2 [D,F,]4 |] %8
V:3
 x8 | x8 | [EA]2 [FA]2 [Fd]2 z D, | x8 | x8 | x8 | x8 | x8 |] %8

